Automatic/src/svg/input_BTN-R.svg

<svg xmlns="http://www.w3.org/2000/svg" xml:space="preserve" width="266.667" height="266.667"><defs><clipPath id="a" clipPathUnits="userSpaceOnUse"><path d="M0 256h256V0H0Z"/></clipPath></defs><g clip-path="url(#a)" transform="matrix(1.33333 0 0 -1.33333 -37.333 304)"><path d="M0 0c-19.851 0-36 16.149-36 36s16.149 36 36 36 36-16.149 36-36S19.851 0 0 0m0 76c-22.092 0-40-17.909-40-40S-22.092-4 0-4s40 17.908 40 40S22.092 76 0 76" style="fill:#fff;fill-opacity:1;fill-rule:nonzero;stroke:none" transform="translate(188 92)"/><path d="M0 0c-19.851 0-36 16.149-36 36s16.149 36 36 36 36-16.149 36-36S19.851 0 0 0m0 76c-22.091 0-40-17.908-40-40S-22.091-4 0-4s40 17.908 40 40S22.092 76 0 76" style="fill:#fff;fill-opacity:1;fill-rule:nonzero;stroke:none" transform="translate(128 32)"/><path d="M0 0c-19.851 0-36 16.149-36 36s16.149 36 36 36 36-16.149 36-36S19.851 0 0 0m0 76c-22.091 0-40-17.909-40-40S-22.091-4 0-4s40 17.908 40 40S22.091 76 0 76" style="fill:#fff;fill-opacity:1;fill-rule:nonzero;stroke:none" transform="translate(68 92)"/><path d="M0 0c-19.851 0-36 16.149-36 36s16.149 36 36 36 36-16.149 36-36S19.851 0 0 0m0 76c-22.091 0-40-17.909-40-40S-22.091-4 0-4s40 17.909 40 40S22.092 76 0 76" style="fill:#fff;fill-opacity:1;fill-rule:nonzero;stroke:none" transform="translate(128 152)"/><path d="M0 0c-17.673 0-32-14.327-32-32s14.327-32 32-32 32 14.327 32 32S17.673 0 0 0m0-4c15.439 0 28-12.561 28-28S15.439-60 0-60s-28 12.561-28 28S-15.439-4 0-4" style="fill:#fff;fill-opacity:1;fill-rule:nonzero;stroke:none" transform="translate(188 160)"/></g></svg>

<?xml version="1.0" encoding="UTF-8" standalone="no"?>
<svg
   xmlns:dc="http://purl.org/dc/elements/1.1/"
   xmlns:cc="http://creativecommons.org/ns#"
   xmlns:rdf="http://www.w3.org/1999/02/22-rdf-syntax-ns#"
   xmlns:svg="http://www.w3.org/2000/svg"
   xmlns="http://www.w3.org/2000/svg"
   viewBox="0 0 266.66665 266.66665"
   height="266.66666"
   width="266.66666"
   xml:space="preserve"
   id="svg2"
   version="1.1"><metadata
     id="metadata8"><rdf:RDF><cc:Work
         rdf:about=""><dc:format>image/svg+xml</dc:format><dc:type
           rdf:resource="http://purl.org/dc/dcmitype/StillImage" /></cc:Work></rdf:RDF></metadata><defs
     id="defs6"><clipPath
       id="clipPath18"
       clipPathUnits="userSpaceOnUse"><path
         id="path16"
         d="M 0,256 H 256 V 0 H 0 Z" /></clipPath></defs><g
     transform="matrix(1.3333333,0,0,-1.3333333,-37.333332,303.99999)"
     id="g10"><g
       id="g12"><g
         clip-path="url(#clipPath18)"
         id="g14"><g
           transform="translate(188,92)"
           id="g20"><path
             id="path22"
             style="fill:#ffffff;fill-opacity:1;fill-rule:nonzero;stroke:none"
             d="M 0,0 C -19.851,0 -36,16.149 -36,36 -36,55.851 -19.851,72 0,72 19.851,72 36,55.851 36,36 36,16.149 19.851,0 0,0 M 0,76 C -22.092,76 -40,58.091 -40,36 -40,13.908 -22.092,-4 0,-4 22.092,-4 40,13.908 40,36 40,58.091 22.092,76 0,76" /></g><g
           transform="translate(128,32)"
           id="g24"><path
             id="path26"
             style="fill:#ffffff;fill-opacity:1;fill-rule:nonzero;stroke:none"
             d="M 0,0 C -19.851,0 -36,16.149 -36,36 -36,55.851 -19.851,72 0,72 19.851,72 36,55.851 36,36 36,16.149 19.851,0 0,0 M 0,76 C -22.091,76 -40,58.092 -40,36 -40,13.908 -22.091,-4 0,-4 22.092,-4 40,13.908 40,36 40,58.092 22.092,76 0,76" /></g><g
           transform="translate(68,92)"
           id="g28"><path
             id="path30"
             style="fill:#ffffff;fill-opacity:1;fill-rule:nonzero;stroke:none"
             d="M 0,0 C -19.851,0 -36,16.149 -36,36 -36,55.851 -19.851,72 0,72 19.851,72 36,55.851 36,36 36,16.149 19.851,0 0,0 M 0,76 C -22.091,76 -40,58.091 -40,36 -40,13.908 -22.091,-4 0,-4 22.091,-4 40,13.908 40,36 40,58.091 22.091,76 0,76" /></g><g
           transform="translate(128,152)"
           id="g32"><path
             id="path34"
             style="fill:#ffffff;fill-opacity:1;fill-rule:nonzero;stroke:none"
             d="M 0,0 C -19.851,0 -36,16.149 -36,36 -36,55.851 -19.851,72 0,72 19.851,72 36,55.851 36,36 36,16.149 19.851,0 0,0 M 0,76 C -22.091,76 -40,58.091 -40,36 -40,13.909 -22.091,-4 0,-4 22.092,-4 40,13.909 40,36 40,58.091 22.092,76 0,76" /></g><g
           transform="translate(188,160)"
           id="g36"><path
             id="path38"
             style="fill:#ffffff;fill-opacity:1;fill-rule:nonzero;stroke:none"
             d="m 0,0 c -17.673,0 -32,-14.327 -32,-32 0,-17.673 14.327,-32 32,-32 17.673,0 32,14.327 32,32 C 32,-14.327 17.673,0 0,0 m 0,-4 c 15.439,0 28,-12.561 28,-28 0,-15.439 -12.561,-28 -28,-28 -15.439,0 -28,12.561 -28,28 0,15.439 12.561,28 28,28" /></g></g></g></g></svg>
